X: 042
T: Camron has got his Wife again
R: reel
B: Robert Bremner "A Collection of Scots Reels or Country Dances" p.4 #2
S: http://imslp.org/wiki/A_Collection_of_Scots_Reels_or_Country_Dances_(Bremner,_Robert)
Z: 2013 John Chambers <jc:trillian.mit.edu>
M: C|
L: 1/8
K: Dmix
% - - - - - - - - - - - - - - - - - - - - - - - - -
V: 1
B |\
dABF AA/A/ AB | dABF E/E/E Ee |\
dABF AA/A/ (Tf>e) | dBAF DD/D/ D :|
|: g |\
fdaf e(gTfe) | fdfa BB/B/ Bg |\
fdaf e(gTfe) | dBAF D/D/D D :|
% - - - - - - - - - - - - - - - - - - - - - - - - -
V: 2 clef=bass middle=d
z |\
d2d2 d2d2 | d2d2 e2e2 |\
d2d2 A2A2 | G2A2 D2D :|\
|: z |
d2d2 e2e2 | d2d2 e2e2 |\
d2d2 A2A2 | G2A2 D2D :|
% - - - - - - - - - - - - - - - - - - - - - - - - -

%%sep 1 1 500
%%sep 1 1 500
